frontend/public/svg/e-commerce/card-2.svg

<svg width="168" height="137" viewBox="0 0 168 137" fill="none" xmlns="http://www.w3.org/2000/svg">
<path d="M80.2668 1.18145C96.9837 1.4256 113.704 1.56285 130.416 1.98553C134.996 2.11831 139.551 2.7136 144.012 3.76225C147.707 4.71358 151.281 6.08446 154.665 7.848C159.083 10.0323 163.395 13.746 164.421 18.5635C165.508 23.2284 166.167 27.9825 166.39 32.767C166.578 39.7301 165.852 46.7143 165.905 53.6859C165.992 65.0333 166.365 76.379 166.674 87.7231C166.818 93.069 167.169 98.4096 167.281 103.756C167.419 110.363 164.478 116.834 160.233 121.825C158.282 124.165 156.125 126.327 153.788 128.283C146.66 134.12 137.846 136.063 128.531 135.634C114.126 134.97 99.7042 134.617 85.2865 134.304C75.4552 134.091 65.6172 134.13 55.7826 134.13C47.1485 134.13 38.5092 134.24 29.9571 132.802C26.8415 132.277 23.7533 131.577 20.6711 130.874C15.6291 129.689 11.0915 126.939 7.70779 123.018C4.02509 118.897 3.51513 113.639 2.42232 108.376C-0.323795 95.1562 0.711991 81.843 1.47531 68.5627C2.28917 54.3987 3.46326 40.2559 4.49437 26.1053C4.84551 21.2924 4.97086 16.5636 7.07901 12.1636C10.8477 4.29868 17.0292 0.323806 25.8576 0.489859C43.9915 0.831811 62.1275 1.10296 80.2622 1.4029L80.2668 1.18145ZM75.4552 7.64257C66.0978 7.64257 52.2207 7.56978 38.3411 7.68267C33.6693 7.72074 28.9555 7.53703 24.371 8.99082C20.9679 10.0711 18.4101 11.9128 16.7778 15.1853C14.9748 18.8018 14.3684 22.636 14.1374 26.5694C13.2546 41.6054 12.4821 56.6486 11.5311 71.6803C10.7651 83.7785 9.89011 95.8453 12.0842 107.91C13.3201 114.703 16.4161 119.844 23.4054 121.605C28.2551 122.826 33.2177 123.992 38.1829 124.279C48.1002 124.853 58.053 124.804 67.9913 125.019C74.3263 125.157 80.6626 125.265 86.9949 125.47C101.631 125.942 116.264 126.42 130.895 126.989C137.409 127.334 143.796 125.086 148.658 120.738C154.411 115.736 158.118 109.773 157.883 101.738C157.517 89.1946 157.409 76.6441 157.222 64.0963C157.167 60.3854 157.151 56.6716 157.227 52.962C157.377 45.6569 157.719 38.3547 157.742 31.0503C157.647 28.0009 157.333 24.9623 156.802 21.958C156.215 17.8356 153.777 15.2153 150.064 13.3494C143.037 9.81695 135.507 8.73065 127.836 8.53768C111.886 8.13863 95.9303 7.9773 75.4552 7.64322V7.64257Z" fill="black"/>
<path d="M61.4612 34.7508C61.2998 37.3558 61.2139 39.9683 60.9592 42.5615C60.5766 46.4634 58.3056 49.2102 54.678 50.1356C47.6702 51.8609 40.4034 52.2736 33.2453 51.3531C31.8775 51.1917 30.5689 50.4598 29.2549 49.9354C25.0799 48.2702 23.4981 44.4943 23.733 39.816C23.8098 38.3024 23.7725 36.7809 23.888 35.2713C24.0053 32.8912 24.2443 30.519 24.6039 28.1634C25.4257 23.6347 28.5603 20.9384 32.8082 20.3405C38.9569 19.4668 45.1596 19.0282 51.37 19.0278C56.7704 19.037 60.1966 22.9986 60.8339 28.8643C61.0459 30.8136 61.1161 32.7785 61.2513 34.7364L61.4612 34.7508ZM54.0395 35.2937C47.7209 34.9721 43.6602 32.5193 42.0055 24.7923C40.683 24.5822 40.6233 25.4774 40.5918 26.3963C40.4538 28.8003 39.5452 31.096 38.0006 32.9433C37.0902 34.1208 36.1004 35.2374 35.3509 36.1353L40.2958 44.2357L42.3645 44.1385C44.5928 38.8609 48.4449 35.9461 54.0395 35.2937ZM29.3363 33.2645C33.9825 32.423 36.8709 29.3356 36.8144 25.471C32.3349 25.3555 29.6946 28.3045 29.3363 33.2645ZM46.5283 24.7974C47.3303 28.4644 49.5475 30.249 53.8748 30.7144C53.4652 24.8172 51.8998 23.5566 46.5283 24.799V24.7974ZM53.9666 39.5817C50.9711 40.3431 48.4067 41.2769 46.7672 44.275C48.2807 44.275 49.4635 44.3117 50.6397 44.2684C53.9076 44.1476 54.4004 43.523 53.9666 39.583V39.5817ZM29.9977 38.2873C30.9323 42.7248 32.1676 43.7821 36.2258 43.8661C34.9046 41.2999 33.4606 38.937 29.9977 38.2885V38.2873Z" fill="black"/>
<path d="M120.737 108.428C115.894 113.543 103.94 111.388 99.8495 105.239C98.8079 103.693 98.1384 101.927 97.8943 100.079C97.6501 98.2314 97.8385 96.3523 98.443 94.5887C99.4419 91.6024 101.018 88.8412 103.081 86.4626C106.813 82.1262 111.847 82.2299 116.939 83.603C118.083 83.9843 119.203 84.4345 120.292 84.9511C125.03 79.4063 130.849 80.568 136.49 82.7372C142.366 84.9977 145.37 89.7811 145.376 95.9953C145.387 108.334 136.394 112.001 126.933 110.362C124.918 110.009 122.993 109.144 120.737 108.428ZM130.057 103.69C133.733 103.639 136.335 102.372 137.25 100.025C138.986 95.5739 137.452 91.0905 133.161 88.872C131.461 87.9932 129.479 87.625 127.596 87.1432C124.684 86.395 122.742 87.9847 121.301 90.1775C118.161 94.9543 119.97 100.457 125.323 102.492C126.877 102.985 128.459 103.384 130.059 103.687L130.057 103.69ZM116.692 104.652C112.25 98.5228 113.415 92.791 117.217 87.2594C113.418 85.61 109.687 86.2368 107.192 88.8346C104.338 91.8092 102.917 97.3447 104.495 100.287C107.092 105.119 111.715 104.7 116.694 104.65L116.692 104.652Z" fill="black"/>
<path d="M35.1559 66.1592C31.5651 65.8969 27.9683 65.6957 24.3854 65.3557C21.3787 65.0702 20.1002 64.0764 20.0739 62.28C20.0477 60.462 21.2166 59.4027 24.2843 59.1887C28.5243 58.894 32.7845 58.875 37.0369 58.8054C37.7977 58.8428 38.5465 59.0093 39.2515 59.2977C40.847 59.8483 41.8158 60.9344 41.7915 62.6973C41.7528 63.5232 41.425 64.3095 40.8658 64.9185C40.3066 65.5276 39.5513 65.9207 38.7316 66.0299C37.5497 66.1947 36.3583 66.2833 35.165 66.2951L35.1559 66.1592Z" fill="black"/>
<path d="M130.055 66.0145C127.223 66.0145 124.389 66.0309 121.557 66.002C120.908 66.0781 120.25 65.9718 119.659 65.6942C118.933 65.1613 118.004 64.3561 117.953 63.6105C117.901 62.8852 118.701 61.8975 119.396 61.379C120.142 60.9302 120.999 60.6997 121.87 60.714C126.99 60.4994 132.109 60.3125 137.232 60.2285C138.541 60.1761 139.847 60.3958 141.067 60.8736C141.938 61.2517 143.029 62.277 143.076 63.0705C143.124 63.8745 142.165 64.9678 141.362 65.5264C140.506 65.9954 139.538 66.2219 138.564 66.1825C135.731 66.2626 132.895 66.2114 130.06 66.2114L130.055 66.0145Z" fill="black"/>
<path d="M95.7132 66.9993C92.5726 66.7329 89.4301 66.4927 86.2941 66.1875C84.7274 66.0352 83.5768 65.3142 83.565 63.5467C83.5519 61.6302 84.9722 61.2018 86.4418 61.146C92.3088 60.9241 98.179 60.7048 104.049 60.672C106.328 60.6595 107.404 61.7345 107.505 63.3569C107.613 65.0792 106.505 66.4559 104.197 66.6587C101.393 66.9061 98.5525 66.7178 95.7263 66.7178L95.7132 66.9993Z" fill="black"/>
<path d="M64.5102 66.2776C61.4995 66.0203 58.5704 65.7896 55.6458 65.5067C54.9964 65.4465 54.361 65.2818 53.7641 65.019C52.6857 64.5307 51.8383 63.6263 52.305 62.4594C52.6036 61.7144 53.5717 61.192 54.3225 60.6938C54.7322 60.5451 55.1715 60.4959 55.6038 60.5506C59.954 60.3536 64.3029 60.1327 68.655 59.9949C69.7393 59.9515 70.8235 60.0731 71.8711 60.3557C72.469 60.4641 73.0105 60.7761 73.4043 61.2387C73.7987 61.7012 74.0199 62.2859 74.0317 62.8933C74.0809 63.5545 73.8919 64.2115 73.4981 64.745C73.1043 65.2785 72.5326 65.6529 71.8862 65.8007C70.8399 66.0886 69.7609 66.2428 68.676 66.2599C67.2668 66.3328 65.8485 66.2776 64.5102 66.2776Z" fill="black"/>
</svg>

<svg xmlns="http://www.w3.org/2000/svg" width="168" height="137" fill="none" viewBox="0 0 168 137"><path fill="#000" d="M80.267 1.181c16.717.245 33.437.382 50.149.805 4.58.132 9.135.728 13.596 1.776a50 50 0 0 1 10.653 4.086c4.418 2.184 8.73 5.898 9.756 10.716a78.7 78.7 0 0 1 1.969 14.203c.188 6.963-.538 13.947-.485 20.919.087 11.347.46 22.693.769 34.037.144 5.346.495 10.687.607 16.033.138 6.607-2.803 13.078-7.048 18.069a51 51 0 0 1-6.445 6.458c-7.128 5.837-15.942 7.78-25.257 7.351-14.405-.664-28.827-1.017-43.244-1.33-9.832-.213-19.67-.174-29.504-.174-8.635 0-17.274.11-25.826-1.328-3.116-.525-6.204-1.225-9.286-1.928a24.54 24.54 0 0 1-12.963-7.856c-3.683-4.121-4.193-9.379-5.286-14.642-2.746-13.22-1.71-26.533-.947-39.813.814-14.164 1.988-28.307 3.02-42.458.35-4.813.476-9.541 2.584-13.941C10.848 4.299 17.029.324 25.858.49c18.134.342 36.27.613 54.404.913zm-4.812 6.462c-9.357 0-23.234-.073-37.114.04-4.672.038-9.385-.146-13.97 1.308-3.403 1.08-5.96 2.922-7.593 6.194-1.803 3.617-2.41 7.451-2.64 11.384-.883 15.036-1.656 30.08-2.607 45.111-.766 12.098-1.64 24.165.553 36.23 1.236 6.793 4.332 11.934 11.321 13.695 4.85 1.221 9.813 2.387 14.778 2.674 9.917.574 19.87.525 29.808.74 6.335.138 12.672.246 19.004.451 14.636.472 29.269.95 43.9 1.519a24.7 24.7 0 0 0 17.763-6.251c5.753-5.002 9.46-10.965 9.225-19-.366-12.543-.474-25.094-.661-37.642a316 316 0 0 1 .005-11.134c.15-7.305.492-14.607.515-21.912a64 64 0 0 0-.94-9.092c-.587-4.122-3.025-6.743-6.738-8.609-7.027-3.532-14.557-4.618-22.228-4.811-15.95-.4-31.906-.56-52.38-.895"/><path fill="#000" d="M61.461 34.75c-.161 2.606-.247 5.218-.502 7.812-.382 3.901-2.653 6.648-6.281 7.574a58.5 58.5 0 0 1-21.433 1.217c-1.367-.161-2.676-.893-3.99-1.418-4.175-1.665-5.757-5.44-5.522-10.119.077-1.514.04-3.035.155-4.545q.176-3.572.716-7.108c.822-4.528 3.956-7.225 8.204-7.823a132 132 0 0 1 18.562-1.312c5.4.009 8.827 3.97 9.464 9.836.212 1.95.282 3.915.417 5.872zm-7.422.544c-6.318-.322-10.379-2.775-12.034-10.502-1.322-.21-1.382.685-1.413 1.604A11.2 11.2 0 0 1 38 32.943c-.91 1.178-1.9 2.294-2.65 3.192l4.945 8.1 2.069-.096c2.228-5.278 6.08-8.193 11.674-8.845m-24.703-2.03c4.647-.841 7.535-3.928 7.478-7.793-4.48-.116-7.12 2.834-7.478 7.793m17.192-8.467c.802 3.667 3.02 5.452 7.347 5.917-.41-5.897-1.975-7.157-7.347-5.915zm7.439 14.785c-2.996.761-5.56 1.695-7.2 4.693 1.514 0 2.697.037 3.873-.007 3.268-.12 3.76-.745 3.327-4.685zm-23.97-1.295c.935 4.438 2.17 5.495 6.229 5.58-1.321-2.567-2.765-4.93-6.228-5.578zm90.741 70.141c-4.843 5.115-16.797 2.96-20.887-3.189a12.06 12.06 0 0 1-1.407-10.65 24 24 0 0 1 4.638-8.126c3.732-4.337 8.766-4.233 13.858-2.86q1.718.573 3.353 1.348c4.738-5.545 10.557-4.383 16.198-2.214 5.876 2.26 8.88 7.044 8.886 13.258.011 12.339-8.982 16.006-18.443 14.367-2.015-.353-3.94-1.218-6.196-1.934m9.32-4.738c3.676-.051 6.278-1.318 7.193-3.665 1.736-4.451.202-8.934-4.089-11.153-1.7-.879-3.682-1.247-5.565-1.729-2.912-.748-4.854.842-6.295 3.034-3.14 4.777-1.331 10.28 4.022 12.315 1.554.493 3.136.892 4.736 1.195zm-13.365.962c-4.442-6.13-3.277-11.861.525-17.393-3.799-1.649-7.53-1.022-10.025 1.576-2.854 2.974-4.275 8.51-2.697 11.452 2.597 4.832 7.22 4.413 12.199 4.363zM35.156 66.16c-3.59-.263-7.188-.464-10.77-.804-3.007-.286-4.286-1.28-4.312-3.076-.026-1.818 1.143-2.877 4.21-3.091 4.24-.295 8.5-.314 12.753-.384a6.7 6.7 0 0 1 2.215.493c1.595.55 2.564 1.636 2.54 3.4a3.53 3.53 0 0 1-3.06 3.332 28 28 0 0 1-3.567.265zm94.899-.145c-2.832 0-5.666.016-8.498-.013a3.5 3.5 0 0 1-1.898-.308c-.726-.533-1.655-1.338-1.706-2.084-.052-.725.748-1.712 1.443-2.231a4.65 4.65 0 0 1 2.474-.665c5.12-.215 10.239-.401 15.362-.486a9.5 9.5 0 0 1 3.835.646c.871.378 1.962 1.403 2.009 2.197.048.803-.911 1.897-1.714 2.455a5.37 5.37 0 0 1-2.798.657c-2.833.08-5.669.028-8.504.028zM95.713 67c-3.14-.267-6.283-.507-9.419-.812-1.567-.153-2.717-.874-2.729-2.641-.013-1.917 1.407-2.345 2.877-2.401 5.867-.222 11.737-.441 17.607-.474 2.279-.012 3.355 1.063 3.456 2.685.108 1.722-1 3.099-3.308 3.302-2.804.247-5.645.059-8.47.059zm-31.203-.722c-3.01-.258-5.94-.488-8.864-.771a6 6 0 0 1-1.882-.488c-1.078-.488-1.926-1.393-1.459-2.56.299-.745 1.267-1.267 2.017-1.765.41-.149.85-.198 1.282-.143 4.35-.197 8.699-.418 13.051-.556a10.7 10.7 0 0 1 3.216.36 2.63 2.63 0 0 1 2.16 2.538 2.77 2.77 0 0 1-2.145 2.908 13 13 0 0 1-3.21.459c-1.41.073-2.828.018-4.166.018"/></svg>
